places/symbolic/folder-blender-symbolic.svg

<?xml version="1.0" encoding="UTF-8" standalone="no"?>
<svg
   width="16"
   height="16"
   version="1.1"
   id="svg9605"
   xmlns="http://www.w3.org/2000/svg"
   xmlns:svg="http://www.w3.org/2000/svg">
  <defs
     id="defs9601">
    <style
       id="current-color-scheme"
       type="text/css">
   .ColorScheme-Text { color:#444444; } .ColorScheme-Highlight { color:#4285f4; } .ColorScheme-NeutralText { color:#ff9800; } .ColorScheme-PositiveText { color:#4caf50; } .ColorScheme-NegativeText { color:#f44336; }
  </style>
  </defs>
  <path
     id="path14"
     style="clip-rule:evenodd;fill:#000000;fill-rule:nonzero;stroke-width:0.282208;stroke-linejoin:round;stroke-miterlimit:2"
     d="m 4.9007287,9.8875739 c 0.0037,0.2088321 0.07027,0.6146421 0.170171,0.9315561 0.209964,0.670801 0.566109,1.291369 1.061667,1.838281 0.508539,0.562152 1.134759,1.013679 1.858058,1.334263 0.760268,0.33667 1.584034,0.50825 2.4396893,0.506839 0.854244,-0.0012 1.67801,-0.176097 2.438278,-0.515306 0.723299,-0.323689 1.348955,-0.777191 1.856648,-1.339624 0.495275,-0.54917 0.850857,-1.170867 1.061384,-1.841666 0.105828,-0.338927 0.172712,-0.682935 0.199521,-1.0280711 0.02625,-0.340057 0.01524,-0.680676 -0.03302,-1.0210159 C 15.85887,8.0896503 15.629435,7.4673889 15.276109,6.9001585 14.952981,6.3789264 14.536442,5.9226021 14.041167,5.5385221 l 0.0012,-8.889e-4 -4.9981873,-3.8376981 c -0.0045,-0.00339 -0.0082,-0.00705 -0.01298,-0.010163 -0.327926,-0.2517265 -0.879361,-0.2508806 -1.240022,0.00148 -0.364613,0.2551132 -0.40638,0.6770079 -0.08184,0.9431269 l -0.0015,0.00148 2.08467,1.6952025 -6.353915,0.00677 h -0.0085 c -0.525189,5.926e-4 -1.030058,0.3451365 -1.12996,0.7805778 -0.102724,0.443625 0.253987,0.8116191 0.800059,0.8135954 l -8.89e-4,0.00197 3.220558,-0.00621 -5.74688502,4.4111383 c -0.0073,0.0054 -0.01524,0.01101 -0.02201,0.01637 -0.542121,0.415123 -0.717372,1.105395 -0.375901,1.542246 0.346551,0.444191 1.08339802,0.445037 1.63116302,0.0025 l 3.136461,-2.5669311 c 0,0 -0.04572,0.346546 -0.04205,0.554531 z M 12.96031,11.047999 c -0.646257,0.658383 -1.551016,1.03174 -2.529996,1.033715 -0.9803913,0.0017 -1.8851503,-0.368277 -2.5314073,-1.025531 -0.31579,-0.320303 -0.547765,-0.688861 -0.690845,-1.0814081 -0.140257,-0.385773 -0.194724,-0.795252 -0.158601,-1.2083983 0.03415,-0.4038355 0.154369,-0.7890444 0.34627,-1.1375661 0.188515,-0.3425972 0.448147,-0.6521753 0.768735,-0.9140602 0.628195,-0.5119196 1.427972,-0.7890445 2.2644373,-0.7901733 0.837311,-0.00119 1.636525,0.2734567 2.265285,0.7836814 0.320024,0.2607576 0.579373,0.5692068 0.767888,0.9112381 0.192749,0.3482402 0.312121,0.7320387 0.34768,1.1370031 0.03556,0.4125823 -0.01891,0.8214963 -0.159165,1.2075523 C 13.50723,10.357726 13.2761,10.726286 12.96031,11.047999 Z M 8.3408457,8.806732 c 0.02991,-0.5336498 0.291239,-1.0038021 0.685483,-1.3370853 0.386626,-0.3273573 0.907016,-0.5274395 1.4748203,-0.5274395 0.567238,0 1.08763,0.2000822 1.474537,0.5274395 0.393963,0.3332832 0.655288,0.8034355 0.685483,1.3365194 0.02991,0.5483238 -0.19049,1.0577028 -0.577115,1.4352929 -0.394244,0.38408 -0.954992,0.625083 -1.582905,0.625083 -0.6279133,0 -1.1897903,-0.241003 -1.5837523,-0.625083 C 8.5304897,9.8638689 8.3106487,9.3544899 8.3408457,8.806732 Z" />
</svg>

<?xml version="1.0" encoding="UTF-8" standalone="no"?>
<svg
   height="16px"
   viewBox="0 0 16 16"
   width="16px"
   version="1.1"
   id="svg15572"
   xmlns="http://www.w3.org/2000/svg"
   xmlns:svg="http://www.w3.org/2000/svg">
  <defs
     id="defs15576" />
  <path
     id="path14"
     style="clip-rule:evenodd;fill:#000000;fill-opacity:1;fill-rule:nonzero;stroke-width:0.28221;stroke-linejoin:round;stroke-miterlimit:2"
     d="m 4.9005709,9.8875769 c 0.0037,0.2088341 0.070271,0.6146501 0.1701735,0.9315681 0.2099668,0.670812 0.566117,1.291387 1.0616812,1.838305 0.5085456,0.562161 1.134775,1.013695 1.8580829,1.334283 0.760278,0.336672 1.5840562,0.508255 2.4397225,0.506846 0.854257,-0.0012 1.678031,-0.1761 2.43831,-0.515314 0.72331,-0.323695 1.348975,-0.777204 1.856673,-1.339641 0.495283,-0.54918 0.850869,-1.170885 1.0614,-1.841692 0.105829,-0.338931 0.172712,-0.682944 0.199523,-1.028085 0.02624,-0.3400618 0.01523,-0.6806848 -0.03302,-1.0210297 C 15.858866,8.0896287 15.629425,7.467359 15.276092,6.9001201 14.952958,6.378882 14.536414,5.9225518 14.041131,5.5384666 l 0.0012,-8.53e-4 L 9.0440966,1.699864 c -0.00451,-0.00341 -0.0082,-0.0071 -0.012957,-0.010158 C 8.7032127,1.4379763 8.1517671,1.4388211 7.7911032,1.6912087 7.4264828,1.9463257 7.3847155,2.3682263 7.7092611,2.6343486 l -0.00134,0.0015 2.0846962,1.6952245 -6.3539989,0.0068 h -0.0085 C 2.9049209,4.3384883 2.4000454,4.6830207 2.3001417,5.1184672 2.1974168,5.5620983 2.5541324,5.9300971 3.1002118,5.9320743 l -8.529e-4,0.00203 3.2205995,-0.0062 -5.74696061,4.4111967 c -0.007299,0.0054 -0.0152433,0.01101 -0.0220099,0.01637 -0.54212828,0.415128 -0.71738159,1.105412 -0.37590639,1.542268 0.34655589,0.444195 1.0834129,0.44504 1.6311848,0.0024 L 4.94277,9.3332105 c 0,0 -0.045721,0.3465502 -0.042051,0.5545382 z m 8.0596901,1.1604401 c -0.646265,0.658392 -1.551036,1.031752 -2.53003,1.03373 C 9.4498283,12.083372 8.5450572,11.713464 7.898789,11.056201 7.582995,10.735894 7.3510163,10.367331 7.2079363,9.9747787 7.0676775,9.5890005 7.0132083,9.1795163 7.0493324,8.7663645 7.0834825,8.362523 7.2037041,7.977309 7.3956076,7.6287821 7.5841241,7.286181 7.8437593,6.9765984 8.1643516,6.7147103 8.7925562,6.2027843 9.5923425,5.9256557 10.428817,5.9245266 c 0.837325,-0.00118 1.636551,0.2734605 2.265318,0.7836912 0.320027,0.2607615 0.579382,0.5692148 0.767899,0.9112506 0.192752,0.3482455 0.312127,0.7320485 0.347687,1.137019 0.03554,0.4125873 -0.01889,0.821507 -0.159167,1.2075686 -0.143367,0.393679 -0.374498,0.762244 -0.690293,1.083961 z M 8.3407333,8.8067199 C 8.3706674,8.273063 8.631976,7.802905 9.0262254,7.4696172 9.4128594,7.142255 9.9332547,6.9421701 10.501065,6.9421701 c 0.567247,0 1.087647,0.2000849 1.474561,0.5274471 0.393965,0.3332878 0.655294,0.8034458 0.685492,1.3365369 0.02989,0.5483316 -0.190494,1.0577171 -0.577124,1.4353119 -0.394249,0.384085 -0.955005,0.625091 -1.582929,0.625091 -0.6279182,0 -1.189803,-0.241006 -1.5837723,-0.625091 C 8.5303785,9.8638712 8.3105392,9.3544857 8.3407333,8.8067199 Z" />
</svg>
